X: 18134
T: Humours Of Castlefin, The
R: reel
M: 4/4
K: Eminor
BE EE BEFB|AD DD FGAd|BE EE BE AF|GBAF EFGA|
BE EE BEFB|AD DD FGAd|BE EE BE AF|GBAF EFGA||
B2 eB egfe|defg afed|B2 eB egfe|agfa geed|
B2 eB egfe|defg afdf|efga bagf|e2fd e2||

